X:173
T:Down in the Lowlands
R:song air
H:Mr. M`Kenzie says: "This is as I always heard it sung by Irish girls.  T
H:
H:other setting I sent you was the Scotch style of singing it."
B:
O:Irish
M:3/4
L:1/8
K:F
AG|\
F2A2c2|dcA2FA|G2F2F2|F4 zc|d2 defe|d2c2A2|c2F2E2|D4 zc|
d2 defe|d2c2A2|F2A2B2|c4 AG|FGABc_e|dcA2FA|G2F2F2|F4||
